packages/foundations/assets/icons/functional/images/layout/fullscreen_14.svg

<svg width="14" height="14" viewBox="0 0 14 14" fill="none" xmlns="http://www.w3.org/2000/svg">
<g clip-path="url(#clip0_185_1329)">
<path fill-rule="evenodd" clip-rule="evenodd" d="M2.79998 8.40001C3.19373 8.40001 3.52182 8.70626 3.52182 9.10001V10.5H4.89998C5.29373 10.5 5.59998 10.8063 5.59998 11.2C5.59998 11.5718 5.29373 11.9 4.89998 11.9H2.79998C2.42814 11.9 2.09998 11.5718 2.09998 11.2V9.10001C2.09998 8.70626 2.42814 8.40001 2.79998 8.40001ZM11.1781 8.42185C11.5718 8.42185 11.8781 8.72817 11.8781 9.12185V11.2C11.8781 11.5718 11.5718 11.9 11.1781 11.9H9.07814C8.68432 11.9 8.37814 11.5718 8.37814 11.2C8.37814 10.8063 8.68432 10.5 9.07814 10.5H10.4781V9.12185C10.4781 8.72817 10.8062 8.42185 11.1781 8.42185ZM11.2 2.10001C11.5718 2.10001 11.9 2.42817 11.9 2.80001V4.90001C11.9 5.29376 11.5718 5.60001 11.2 5.60001C10.8062 5.60001 10.4781 5.29376 10.4781 4.90001V3.50001H9.09998C8.70623 3.50001 8.39998 3.19376 8.39998 2.80001C8.39998 2.42817 8.70623 2.10001 9.09998 2.10001H11.2ZM4.89998 2.10001C5.29373 2.10001 5.59998 2.42817 5.59998 2.80001C5.59998 3.19376 5.29373 3.50001 4.89998 3.50001H3.49998V4.90001C3.49998 5.29376 3.19373 5.60001 2.79998 5.60001C2.42814 5.60001 2.09998 5.29376 2.09998 4.90001V2.80001C2.09998 2.42817 2.42814 2.10001 2.79998 2.10001H4.89998Z" fill="#1A1C1F"/>
</g>
<defs>
<clipPath id="clip0_185_1329">
<rect width="14" height="14" fill="white"/>
</clipPath>
</defs>
</svg>

<svg xmlns="http://www.w3.org/2000/svg" width="14" height="14" fill="none"><g clip-path="url(#a)"><path fill="#1A1C1F" fill-rule="evenodd" d="M2.8 8.4a.71.71 0 0 1 .722.7v1.4H4.9c.394 0 .7.306.7.7 0 .372-.306.7-.7.7H2.8a.72.72 0 0 1-.7-.7V9.1c0-.394.328-.7.7-.7m8.378.022c.394 0 .7.306.7.7V11.2c0 .372-.306.7-.7.7h-2.1a.705.705 0 0 1-.7-.7c0-.394.306-.7.7-.7h1.4V9.122c0-.394.328-.7.7-.7M11.2 2.1c.372 0 .7.328.7.7v2.1c0 .394-.328.7-.7.7a.71.71 0 0 1-.722-.7V3.5H9.1a.69.69 0 0 1-.7-.7c0-.372.306-.7.7-.7zm-6.3 0c.394 0 .7.328.7.7 0 .394-.306.7-.7.7H3.5v1.4c0 .394-.306.7-.7.7a.705.705 0 0 1-.7-.7V2.8c0-.372.328-.7.7-.7z" clip-rule="evenodd"/></g><defs><clipPath id="a"><path fill="#fff" d="M0 0h14v14H0z"/></clipPath></defs></svg>
